X: 21
T: the Musical Priest
T: the Broom of the Cowden Knowes
R: reel
Z: 1997 by John Chambers <jc@trillian.mit.edu>
M: C|
L: 1/8
K: Bm
|: BA | "Bm"FB~B2 BABd | "A"cBAf     ecBA | "Bm"  FB~B2 BABd | "A"cBAc "Bm"B2 :|
|: Bc |  "D"d2dc  dfed | "A"(3cBA eA fAeA | "Bm"   dcBc defb | "A"afec "Bm"B2 :|
   Bc | "Bm"dB~B2 bafb | "A"afec     ABce | "Bm"  dB~B2 bafb | "A"afec "Bm"B2 ||
   Bc | "Bm"dB~B2 bafb | "A"afec     ABce | "Bm(G)"dcBc defb | "A"afec "Bm"B2 |]
%%sep 2 1 500
